Costumes/C-story-3.svg

<?xml version="1.0" encoding="utf-8"?>
<!-- Generator: Adobe Illustrator 18.0.0, SVG Export Plug-In . SVG Version: 6.00 Build 0)  -->
<!DOCTYPE svg PUBLIC "-//W3C//DTD SVG 1.1//EN" "http://www.w3.org/Graphics/SVG/1.1/DTD/svg11.dtd">
<svg version="1.1" id="Layer_2" xmlns="http://www.w3.org/2000/svg" xmlns:xlink="http://www.w3.org/1999/xlink" x="0px" y="0px"
	 viewBox="0 0 41 48.7" enable-background="new 0 0 41 48.7" xml:space="preserve">
<g>
	<path fill="#41A2F2" d="M41,36.5c-1.2,4.1-3.8,7.1-7.4,9.3c-0.8,0.5-1.6,1.2-2.5,1.6c-1.7,0.9-3.6,1.1-5.5,1.2c-0.6,0-1.1,0-1.7,0
		c-2.8,0.3-5.4-0.5-7.9-1.5c-2.8-1.2-5.4-2.8-7.7-4.9c-2.9-2.6-4.9-5.7-6.3-9.4c-0.5-1.5-1.1-3-1.6-4.5C-0.1,26.2,0,24,0.1,21.8
		c0.2-2.4,0.7-4.7,1.4-6.9c0.4-1.1,1-2.2,1.6-3.2c1.4-2.5,3.4-4.4,5.4-6.3c2.1-2,4.6-3.4,7.4-4.2c4.5-1.3,9-1.4,13.6-0.8
		c1.9,0.2,3.3,1.3,4.9,2.2c0.7,0.4,1.4,0.9,2.3,1.4c0-1,0-1.9,0-2.7c0-0.5,0.2-0.7,0.6-0.7c0.7,0,1.4,0,2.1,0c0.8,0,1,0.4,1,1.2
		c-0.1,2-0.1,3.9-0.1,5.9c0,1.5,0,3-0.1,4.5c0,0.2-0.4,0.6-0.6,0.6c-0.7,0.1-1.4,0.1-2.1,0.1c-0.5,0-0.5-0.4-0.7-0.8
		c-0.6-1.5-1.1-3.2-2-4.5C34.2,6.6,33,6,32,5.3c-2.1-1.4-4.6-1.9-7.1-1.9c-4.1-0.1-8,0.8-11.2,3.7c-1.6,1.5-2.8,3.2-3.6,5.2
		c-1.4,3.5-2.3,7.1-2.5,10.8c-0.1,2.2,0.1,4.5,0.6,6.7c0.6,2.8,1.3,5.6,3,7.9c0.9,1.2,1.8,2.3,2.8,3.4c0.4,0.4,1.1,0.7,1.6,0.9
		c2.7,1.2,5.4,2.2,8.4,2.2c3.2,0,6.1-0.7,8.8-2.5c2.7-1.8,4.7-4,6.4-6.6c0.1-0.1,0.2-0.2,0.3-0.2c0.5,0.3,0.9,0.5,1.3,0.9
		C41.1,36,41.1,36.3,41,36.5z"/>
</g>
</svg>

<?xml version="1.0" encoding="UTF-8" standalone="no"?>
<!-- Generator: Adobe Illustrator 18.0.0, SVG Export Plug-In . SVG Version: 6.00 Build 0)  -->

<svg
   version="1.1"
   id="Layer_2"
   x="0px"
   y="0px"
   viewBox="0 0 41.041458 48.617198"
   enable-background="new 0 0 41 48.7"
   xml:space="preserve"
   sodipodi:docname="C-story-3.svg"
   width="41.041458"
   height="48.617199"
   xmlns:inkscape="http://www.inkscape.org/namespaces/inkscape"
   xmlns:sodipodi="http://sodipodi.sourceforge.net/DTD/sodipodi-0.dtd"
   xmlns="http://www.w3.org/2000/svg"
   xmlns:svg="http://www.w3.org/2000/svg"><defs
   id="defs9" /><sodipodi:namedview
   id="namedview7"
   pagecolor="#ffffff"
   bordercolor="#000000"
   borderopacity="0.25"
   inkscape:showpageshadow="2"
   inkscape:pageopacity="0.0"
   inkscape:pagecheckerboard="0"
   inkscape:deskcolor="#d1d1d1" />
<g
   id="g4"
   transform="translate(-0.01835034,-0.04666113)">
	<path
   fill="#41a2f2"
   d="m 41,36.5 c -1.2,4.1 -3.8,7.1 -7.4,9.3 -0.8,0.5 -1.6,1.2 -2.5,1.6 -1.7,0.9 -3.6,1.1 -5.5,1.2 -0.6,0 -1.1,0 -1.7,0 C 21.1,48.9 18.5,48.1 16,47.1 13.2,45.9 10.6,44.3 8.3,42.2 5.4,39.6 3.4,36.5 2,32.8 1.5,31.3 0.9,29.8 0.4,28.3 -0.1,26.2 0,24 0.1,21.8 0.3,19.4 0.8,17.1 1.5,14.9 1.9,13.8 2.5,12.7 3.1,11.7 4.5,9.2 6.5,7.3 8.5,5.4 c 2.1,-2 4.6,-3.4 7.4,-4.2 4.5,-1.3 9,-1.4 13.6,-0.8 1.9,0.2 3.3,1.3 4.9,2.2 0.7,0.4 1.4,0.9 2.3,1.4 0,-1 0,-1.9 0,-2.7 0,-0.5 0.2,-0.7 0.6,-0.7 0.7,0 1.4,0 2.1,0 0.8,0 1,0.4 1,1.2 -0.1,2 -0.1,3.9 -0.1,5.9 0,1.5 0,3 -0.1,4.5 0,0.2 -0.4,0.6 -0.6,0.6 -0.7,0.1 -1.4,0.1 -2.1,0.1 C 37,12.9 37,12.5 36.8,12.1 36.2,10.6 35.7,8.9 34.8,7.6 34.2,6.6 33,6 32,5.3 29.9,3.9 27.4,3.4 24.9,3.4 c -4.1,-0.1 -8,0.8 -11.2,3.7 -1.6,1.5 -2.8,3.2 -3.6,5.2 -1.4,3.5 -2.3,7.1 -2.5,10.8 -0.1,2.2 0.1,4.5 0.6,6.7 0.6,2.8 1.3,5.6 3,7.9 0.9,1.2 1.8,2.3 2.8,3.4 0.4,0.4 1.1,0.7 1.6,0.9 2.7,1.2 5.4,2.2 8.4,2.2 3.2,0 6.1,-0.7 8.8,-2.5 2.7,-1.8 4.7,-4 6.4,-6.6 0.1,-0.1 0.2,-0.2 0.3,-0.2 0.5,0.3 0.9,0.5 1.3,0.9 0.3,0.2 0.3,0.5 0.2,0.7 z"
   id="path2" />
</g>
</svg>
